public/images/s5.svg

<svg width="93" height="92" viewBox="0 0 93 92" fill="none" xmlns="http://www.w3.org/2000/svg">
<path d="M43.9311 27.579C43.9311 36.8182 36.4411 44.3082 27.2017 44.3082M43.9311 27.579C43.9311 18.3397 36.4411 10.8495 27.2017 10.8495M43.9311 27.579H10.4724M27.2017 44.3082C17.9624 44.3082 10.4724 36.8182 10.4724 27.579M27.2017 44.3082V10.8495M10.4724 27.579C10.4724 18.3397 17.9624 10.8495 27.2017 10.8495M21.9948 43.4815C19.7255 39.1154 18.3697 33.5891 18.3697 27.5789C18.3697 21.5686 19.7255 16.0424 21.9948 11.6765M41.4885 18.8712C37.7863 20.8914 32.7503 22.1336 27.2017 22.1336C21.653 22.1336 16.617 20.8914 12.915 18.8712M23.8457 74.3155H40.3683M23.8457 80.5622H40.3683M52.4034 40.6865H82.6427C87.1682 40.6865 90.8372 44.3551 90.8372 48.8809V81.8055C90.8372 86.3312 87.1682 90 82.6427 90H23.3549C18.8294 90 15.1606 86.3312 15.1606 81.8055V65.7148H44.9434M52.4034 40.6865V58.2546M52.4034 40.6865L52.4034 22.6612L52.4034 58.2546M52.4034 40.6865L62.503 40.6865V9.46C62.503 5.34006 59.1629 2 55.0428 2H44.9434M52.4034 58.2546C52.4034 62.3749 49.0635 65.7148 44.9434 65.7148M52.4034 58.2546C52.4034 62.3747 49.0635 65.7148 44.9434 65.7148M44.9434 65.7148L6.27455 65.7149C3.91384 65.7149 2 63.801 2 61.4403V48.0929M49.2359 64.3543C49.1326 64.4271 49.0275 64.4975 48.9202 64.5653M44.9434 2C49.0634 2 52.4034 5.34006 52.4034 9.46V17.2988M44.9434 2L6.27462 2C3.91391 2 2.00007 3.91366 2.00007 6.27455V42.7305M41.4885 36.2866C37.7863 34.2666 32.7503 33.0241 27.2017 33.0241C21.653 33.0241 16.617 34.2666 12.915 36.2866M32.4086 43.4815C34.678 39.1154 36.0337 33.5891 36.0337 27.5789C36.0337 21.5686 34.6781 16.0424 32.4088 11.6765M61.8939 62.1825L68.5942 53.5496L59.0032 51.4005C57.7752 51.1252 56.4885 51.3487 55.4251 52.0215L52.4034 53.9337V57.4202C52.4093 57.4232 52.4141 57.4271 52.4198 57.43L61.8939 62.1825ZM77.8029 62.758L69.17 69.4583L73.9225 78.9326C74.6043 80.292 76.5092 80.3866 77.3223 79.1015L79.331 75.9274C80.0038 74.864 80.2273 73.577 79.952 72.349L77.8029 62.758ZM83.1426 48.2097C81.681 46.7481 79.4324 46.4215 77.6154 47.407L72.5051 50.1781C70.9895 50.9999 69.6664 52.1361 68.6248 53.5101L55.8671 69.9473L50.9427 69.5192C50.4759 69.4786 50.015 69.6466 49.6836 69.9778L47.3881 72.2735C46.5162 73.1454 46.9287 74.6351 48.1249 74.9341L53.5686 76.2949C54.3017 76.4781 54.8742 77.0509 55.0574 77.7839L56.4182 83.2274C56.7172 84.4238 58.2069 84.8362 59.0788 83.9644L61.3745 81.6688C61.7059 81.3374 61.8739 80.8766 61.8332 80.4097L61.4051 75.4852L77.8424 62.7275C79.2163 61.686 80.3524 60.3631 81.1743 58.8475L83.9455 53.7369C84.9308 51.92 84.6042 49.6713 83.1426 48.2097Z" stroke="#001489" stroke-width="2.5" stroke-miterlimit="10" stroke-linecap="round" stroke-linejoin="round"/>
</svg>

<svg xmlns="http://www.w3.org/2000/svg" width="93" height="92" fill="none"><path stroke="#001489" stroke-linecap="round" stroke-linejoin="round" stroke-miterlimit="10" stroke-width="2.5" d="M43.931 27.579c0 9.24-7.49 16.73-16.73 16.73m16.73-16.73c0-9.24-7.49-16.73-16.73-16.73m16.73 16.73H10.472m16.73 16.73c-9.24 0-16.73-7.49-16.73-16.73m16.73 16.73v-33.46m-16.73 16.73c0-9.24 7.49-16.73 16.73-16.73m-5.207 32.632c-2.27-4.366-3.625-9.892-3.625-15.902s1.355-11.537 3.625-15.902m19.494 7.194c-3.703 2.02-8.739 3.263-14.287 3.263-5.549 0-10.585-1.243-14.287-3.263m10.93 55.445h16.523m-16.522 6.246h16.522m12.035-39.875h30.24a8.194 8.194 0 0 1 8.194 8.194v32.924A8.195 8.195 0 0 1 82.643 90H23.355a8.194 8.194 0 0 1-8.194-8.195v-16.09h29.782m7.46-25.028v17.568m0-17.568V22.66v35.594m0-17.568h10.1V9.46A7.46 7.46 0 0 0 55.043 2h-10.1m7.46 56.255a7.46 7.46 0 0 1-7.46 7.46m7.46-7.46a7.46 7.46 0 0 1-7.46 7.46m0 0H6.275A4.275 4.275 0 0 1 2 61.44V48.093m47.236 16.261a8 8 0 0 1-.316.211M44.943 2a7.46 7.46 0 0 1 7.46 7.46v7.839M44.943 2H6.275A4.275 4.275 0 0 0 2 6.275V42.73m39.489-6.444c-3.703-2.02-8.739-3.263-14.287-3.263-5.549 0-10.585 1.243-14.287 3.263m19.494 7.194c2.269-4.366 3.625-9.892 3.625-15.902s-1.356-11.537-3.625-15.902m29.485 50.506 6.7-8.633-9.59-2.15a4.75 4.75 0 0 0-3.579.622l-3.022 1.912v3.486l.017.01zm15.909.575-8.633 6.7 4.752 9.475c.682 1.359 2.587 1.454 3.4.168l2.009-3.174a4.75 4.75 0 0 0 .621-3.578zm5.34-14.548a4.67 4.67 0 0 0-5.528-.803l-5.11 2.771a12.1 12.1 0 0 0-3.88 3.332L55.867 69.947l-4.924-.428a1.59 1.59 0 0 0-1.26.459l-2.295 2.296a1.586 1.586 0 0 0 .737 2.66l5.444 1.36a2.05 2.05 0 0 1 1.488 1.49l1.361 5.443a1.586 1.586 0 0 0 2.66.737l2.296-2.295c.332-.332.5-.792.46-1.26l-.429-4.924 16.437-12.757a12.1 12.1 0 0 0 3.332-3.88l2.771-5.111a4.67 4.67 0 0 0-.802-5.527"/></svg>
